X: 26
T: MEDLEY: Fishy Song Set
T: Fishy Song [3/2 Hornpipe] / Dance ti' Thy Daddy / You Can Have a Fishy
C: C: Trad.; S: Various
C: Set Leaders: Olya, Tania, Anton
Z: Anton Zille ed., Oleg Naumov arr.; Bregolas at The Session
N: https://thesession.org/members/26966/sets/92388
R: 3/2 Hornpipe
M: 3/2
L: 1/4
Q: 1/2=146
K: Dmaj
"D"d d d B A F|"G"e e e d c A|"D"d d d B A F|"G"A d d "A"c d2||
"D"d d d B A F|"Em"e e e d c A|"D"d d d B A F|"G"A d d "A"c d2||
"D"f2 f e f a|"G"e2 e d c A|"D"f2 f e f a|"G"e d d "(A)"c d2|
"D"f2 f e f a|"Em"g2 g e c A|"D"f2 f e f a|"G"A d d "A (D)"c d2||
T: Cucanandy [Hop Jig] / Dance to Your Daddy / She Didn't Dance and Dance
R: Hop Jig
M: 3/4
L: 1/8
Q: 1/4=146
K: Gmaj
"G"B2 BA GA|"G"Bd dB "D"d2|"G"B2 BA GA|"C"Be ed "D"e2|
"G"B2 BA GA|"G"Bd dB "D/F#"d2|"Em"eB BA GA|"C"Be ed "D"e2||
"Em"ef gf gA|"D"Bd dB d2|"C"ef gf gA|"D"Be ed e2|
"Em"ef gf gA|"D"Bd dB d2|"C"eB BA GA|"D"Be ed ed||

